X:048
T:Tip Top Polka
M:4/4
L:1/8
K:G
d2 d2 de dc | B2 B2 B2 GA | B2 B2 B2 d2 | AG AB A2-A2 | 
c2 c2 cd cB | A2 A2 A2 G2 | FG AB cd ef | g2 g2 g4 :| 
g2 e2 ed ef | g2 d2 d4 | B2 B2 (3AcA G2 | e2 d2 d2 ef | 
g2 e2 ed ef | g2 d2 d3 d | cB AB cd ef | g2 g2 g4 :| 

